Catalina-dark/actions/16/boundingbox_bottom_left.svg

<?xml version="1.0" encoding="UTF-8" standalone="no"?>
<svg
   xmlns:dc="http://purl.org/dc/elements/1.1/"
   xmlns:cc="http://creativecommons.org/ns#"
   xmlns:rdf="http://www.w3.org/1999/02/22-rdf-syntax-ns#"
   xmlns:svg="http://www.w3.org/2000/svg"
   xmlns="http://www.w3.org/2000/svg"
   xmlns:sodipodi="http://sodipodi.sourceforge.net/DTD/sodipodi-0.dtd"
   xmlns:inkscape="http://www.inkscape.org/namespaces/inkscape"
   width="16"
   height="16"
   viewBox="0 0 16 16"
   version="1.1"
   id="svg7"
   sodipodi:docname="boundingbox_bottom_left.svg"
   inkscape:version="0.92.4 5da689c313, 2019-01-14">
  <metadata
     id="metadata11">
    <rdf:RDF>
      <cc:Work
         rdf:about="">
        <dc:format>image/svg+xml</dc:format>
        <dc:type
           rdf:resource="http://purl.org/dc/dcmitype/StillImage" />
      </cc:Work>
    </rdf:RDF>
  </metadata>
  <sodipodi:namedview
     pagecolor="#ffffff"
     bordercolor="#666666"
     borderopacity="1"
     objecttolerance="10"
     gridtolerance="10"
     guidetolerance="10"
     inkscape:pageopacity="0"
     inkscape:pageshadow="2"
     inkscape:window-width="640"
     inkscape:window-height="480"
     id="namedview9"
     showgrid="false"
     inkscape:zoom="14.75"
     inkscape:cx="6.8135593"
     inkscape:cy="8"
     inkscape:window-x="0"
     inkscape:window-y="26"
     inkscape:window-maximized="0"
     inkscape:current-layer="svg7" />
  <defs
     id="defs3">
    <style
       id="current-color-scheme"
       type="text/css">
   .ColorScheme-Text { color:#5c616c; } .ColorScheme-Highlight { color:#5294e2; }
  </style>
  </defs>
  <path
     style="fill:#f1f6f8;fill-opacity:0.8509804"
     class="ColorScheme-Text"
     d="M 4 0 L 4 6.1054688 C 3.99795 6.1058867 3.9961906 6.1069219 3.9941406 6.1074219 C 3.4381706 6.2222919 2.9058219 6.4309994 2.4199219 6.7246094 C 2.4079409 6.7318094 2.3947245 6.7368206 2.3828125 6.7441406 C 2.1592725 6.8828006 1.9470269 7.0388775 1.7480469 7.2109375 C 1.7255329 7.2302575 1.7037936 7.2498312 1.6816406 7.2695312 C 1.4840706 7.4435912 1.3005625 7.6329775 1.1328125 7.8359375 C 1.1286725 7.8410375 1.1252128 7.8465025 1.1210938 7.8515625 C 0.95509375 8.0562325 0.80554813 8.2737131 0.67382812 8.5019531 C 0.66500812 8.5171831 0.65514738 8.531555 0.64648438 8.546875 C 0.52038438 8.772475 0.41199563 9.0076 0.32226562 9.25 C 0.30976562 9.2833 0.29694625 9.3160094 0.28515625 9.3496094 C 0.20094625 9.5884094 0.13501062 9.8332313 0.087890625 10.082031 C 0.079901625 10.125031 0.075251375 10.167938 0.068359375 10.210938 C 0.024744375 10.471937 0.001886 10.736 0 11 C 0.0008805 11.14477 0.008050375 11.289444 0.021484375 11.433594 C 0.028954375 11.520504 0.040870375 11.605826 0.052734375 11.691406 C 0.062694375 11.767836 0.074412625 11.844022 0.087890625 11.919922 C 0.097860625 11.973472 0.11138488 12.025195 0.12304688 12.078125 C 0.18421688 12.357015 0.26916312 12.630141 0.37695312 12.894531 C 0.39502012 12.938541 0.41627088 12.980067 0.43554688 13.023438 C 0.54701687 13.278847 0.67964125 13.524502 0.83203125 13.757812 C 0.85451125 13.791702 0.88101888 13.822159 0.90429688 13.855469 C 1.0677969 14.092199 1.251415 14.314381 1.453125 14.519531 C 1.4678 14.534321 1.4831899 14.54789 1.4980469 14.5625 C 1.7114269 14.77437 1.9434863 14.966549 2.1914062 15.136719 C 2.2075512 15.147709 2.2259085 15.155216 2.2421875 15.166016 C 2.4935775 15.333616 2.7596394 15.478086 3.0371094 15.597656 L 3.0527344 15.605469 C 3.0603344 15.608669 3.0685549 15.610081 3.0761719 15.613281 C 3.3631219 15.733161 3.6606437 15.826015 3.9648438 15.890625 C 3.9787198 15.893525 3.9919404 15.897591 4.0058594 15.900391 C 4.1679994 15.933101 4.33259 15.957999 4.5 15.974609 C 4.6661 15.990609 4.833 16 5 16 C 5.28942 15.999643 5.5782713 15.974158 5.8632812 15.923828 C 5.8771293 15.921428 5.8904849 15.918516 5.9042969 15.916016 C 6.1449469 15.870316 6.3819213 15.806992 6.6132812 15.726562 C 6.6576372 15.711403 6.7022807 15.698001 6.7460938 15.681641 C 6.9704738 15.597151 7.1884875 15.496629 7.3984375 15.380859 C 7.4454275 15.355099 7.4910194 15.328011 7.5371094 15.300781 C 7.7466594 15.178781 7.9470588 15.041705 8.1367188 14.890625 C 8.1637487 14.868825 8.1882637 14.844626 8.2148438 14.822266 C 8.3925638 14.672616 8.5596337 14.510771 8.7148438 14.337891 C 8.7377037 14.312461 8.7628063 14.289582 8.7851562 14.263672 C 8.9424062 14.079042 9.0860137 13.883214 9.2148438 13.677734 C 9.2448837 13.630494 9.2742344 13.583516 9.3027344 13.535156 C 9.4298944 13.321076 9.5408756 13.097797 9.6347656 12.867188 C 9.6453656 12.840837 9.6538925 12.813689 9.6640625 12.787109 C 9.7636625 12.532109 9.8420375 12.268 9.8984375 12 L 16 12 L 16 10 L 9.8945312 10 C 9.8940312 9.9973 9.8931781 9.9947875 9.8925781 9.9921875 C 9.8443781 9.7559875 9.7790656 9.523575 9.6972656 9.296875 L 9.6933594 9.2851562 C 9.6926534 9.2832563 9.6922062 9.2812969 9.6914062 9.2792969 C 9.6096063 9.0591969 9.5122906 8.8451719 9.4003906 8.6386719 C 9.3905906 8.6203719 9.3810937 8.6020844 9.3710938 8.5839844 C 9.2700937 8.4026844 9.1578562 8.2279469 9.0351562 8.0605469 C 9.0166563 8.0351469 8.9993687 8.009475 8.9804688 7.984375 C 8.8433687 7.801875 8.6939031 7.6288969 8.5332031 7.4667969 C 8.3769031 7.3120969 8.2104563 7.1679562 8.0351562 7.0351562 C 8.0056562 7.0125563 7.9772656 6.9886969 7.9472656 6.9667969 C 7.5844656 6.7018969 7.1876781 6.487125 6.7675781 6.328125 C 6.7312781 6.314425 6.6949031 6.3019625 6.6582031 6.2890625 C 6.4433031 6.2115625 6.2234 6.1489625 6 6.1015625 L 6 0 L 4 0 z"
     id="path5" />
</svg>

<svg width="16" height="16" version="1.1" viewBox="0 0 16 16" xmlns="http://www.w3.org/2000/svg">
<defs>
<style id="current-color-scheme" type="text/css">.ColorScheme-Text { color:#5c616c; } .ColorScheme-Highlight { color:#5294e2; }</style>
</defs>
<path class="ColorScheme-Text" d="m4 0v6.1055c-0.00205 4.179e-4 -0.0038094 0.0014531-0.0058594 0.0019531-0.55597 0.11487-1.0883 0.32358-1.5742 0.61719-0.011981 0.0072-0.025197 0.012211-0.037109 0.019531-0.22354 0.13866-0.43579 0.29474-0.63477 0.4668-0.022514 0.01932-0.044253 0.038894-0.066406 0.058594-0.19757 0.17406-0.38108 0.36345-0.54883 0.56641-0.00414 0.0051-0.0075997 0.010565-0.011719 0.015625-0.166 0.20467-0.31555 0.42215-0.44727 0.65039-0.00882 0.01523-0.018681 0.029602-0.027344 0.044922-0.1261 0.2256-0.23449 0.46072-0.32422 0.70312-0.0125 0.0333-0.025319 0.066009-0.037109 0.099609-0.08421 0.2388-0.15015 0.48362-0.19727 0.73242-0.007989 0.043-0.012639 0.085907-0.019531 0.12891-0.043615 0.261-0.066473 0.52506-0.068359 0.78906 8.805e-4 0.14477 0.0080504 0.28944 0.021484 0.43359 0.00747 0.08691 0.019386 0.17223 0.03125 0.25781 0.00996 0.07643 0.021678 0.15262 0.035156 0.22852 0.00997 0.05355 0.023494 0.10527 0.035156 0.1582 0.06117 0.27889 0.14612 0.55202 0.25391 0.81641 0.018067 0.04401 0.039318 0.085536 0.058594 0.12891 0.11147 0.25541 0.24409 0.50106 0.39648 0.73437 0.02248 0.03389 0.048988 0.064347 0.072266 0.097657 0.1635 0.23673 0.34712 0.45891 0.54883 0.66406 0.014675 0.01479 0.030065 0.028359 0.044922 0.042969 0.21338 0.21187 0.44544 0.40405 0.69336 0.57422 0.016145 0.01099 0.034502 0.018497 0.050781 0.029297 0.25139 0.1676 0.51745 0.31207 0.79492 0.43164l0.015625 0.007813c0.0076 0.0032 0.01582 0.004612 0.023438 0.007812 0.28695 0.11988 0.58447 0.21273 0.88867 0.27734 0.013876 0.0029 0.027097 0.006966 0.041016 0.009766 0.16214 0.03271 0.32673 0.057608 0.49414 0.074218 0.1661 0.016 0.333 0.025391 0.5 0.025391 0.28942-3.57e-4 0.57827-0.025842 0.86328-0.076172 0.013848-0.0024 0.027204-0.005312 0.041016-0.007812 0.24065-0.0457 0.47762-0.10902 0.70898-0.18945 0.044356-0.015159 0.089-0.028561 0.13281-0.044921 0.22438-0.08449 0.44239-0.18501 0.65234-0.30078 0.04699-0.02576 0.092582-0.052848 0.13867-0.080078 0.20955-0.122 0.40995-0.25908 0.59961-0.41016 0.02703-0.0218 0.051545-0.045999 0.078125-0.068359 0.17772-0.14965 0.34479-0.3115 0.5-0.48438 0.02286-0.02543 0.047962-0.048309 0.070312-0.074219 0.15725-0.18463 0.30086-0.38046 0.42969-0.58594 0.03004-0.04724 0.059391-0.094218 0.087891-0.14258 0.12716-0.21408 0.23814-0.43736 0.33203-0.66797 0.0106-0.026351 0.019127-0.053499 0.029297-0.080079 0.0996-0.255 0.17798-0.51911 0.23438-0.78711h6.1016v-2h-6.1055c-5e-4 -0.0027-0.0013531-0.0052125-0.0019531-0.0078125-0.0482-0.2362-0.11351-0.46861-0.19531-0.69531l-0.0039062-0.011719c-7.06e-4 -0.0018999-0.0011532-0.0038593-0.0019532-0.0058593-0.0818-0.2201-0.17912-0.43412-0.29102-0.64062-0.0098-0.0183-0.019297-0.036588-0.029297-0.054688-0.101-0.1813-0.21324-0.35604-0.33594-0.52344-0.0185-0.0254-0.035788-0.051072-0.054687-0.076172-0.1371-0.1825-0.28657-0.35548-0.44727-0.51758-0.1563-0.1547-0.32275-0.29884-0.49805-0.43164-0.0295-0.0226-0.057891-0.046459-0.087891-0.068359-0.3628-0.2649-0.75959-0.47967-1.1797-0.63867-0.0363-0.0137-0.072675-0.026162-0.10938-0.039062-0.2149-0.0775-0.4348-0.1401-0.6582-0.1875v-6.1016h-2z" fill="#dedede" fill-opacity=".85098"/>
</svg>
